assets/features/global-acquiring/icon_active1.svg

<svg width="104" height="104" viewBox="0 0 104 104" fill="none" xmlns="http://www.w3.org/2000/svg">
<g filter="url(#filter0_d_1129_18111)">
<rect x="12" y="4" width="80" height="80" rx="20" fill="white"/>
<rect x="27.4653" y="29.1156" width="40" height="30.6667" rx="8" transform="rotate(-9 27.4653 29.1156)" fill="#7CD0E8"/>
<path d="M72 35.0922V31.6862C72 30.0166 70.6432 28.6666 68.965 28.6666H35.035C33.3568 28.6666 32 30.0166 32 31.6862V35.0922C32 35.3852 32.241 35.625 32.5356 35.625H71.4644C71.759 35.625 72 35.3852 72 35.0922ZM71.4644 38.4492H32.5356C32.241 38.4492 32 38.689 32 38.9821V56.3137C32 57.9834 33.3568 59.3333 35.035 59.3333H68.965C70.6432 59.3333 72 57.9834 72 56.3137V38.9821C72 38.689 71.759 38.4492 71.4644 38.4492ZM51.9911 49.5818L51.1743 54.1911C51.1297 54.4442 50.9065 54.6307 50.6476 54.6307H48.8802C48.5454 54.6307 48.2955 54.3332 48.3535 54.0046L49.1703 49.3953C49.2149 49.1422 49.4381 48.9557 49.6969 48.9557H51.4644C51.7992 48.9601 52.0491 49.2576 51.9911 49.5818ZM57.7085 49.5818L56.8918 54.1911C56.8471 54.4442 56.624 54.6307 56.3651 54.6307H54.5976C54.2629 54.6307 54.0129 54.3332 54.071 54.0046L54.8877 49.3953C54.9324 49.1422 55.1555 48.9557 55.4144 48.9557H57.1819C57.5166 48.9601 57.7666 49.2576 57.7085 49.5818ZM66.2781 49.5818L65.4613 54.1911C65.4166 54.4442 65.1935 54.6307 64.9346 54.6307H60.3151C59.9804 54.6307 59.7304 54.3332 59.7884 54.0046L60.6052 49.3953C60.6499 49.1422 60.873 48.9557 61.1319 48.9557H65.7514C66.0817 48.9601 66.3361 49.2576 66.2781 49.5818Z" fill="#7A49E9"/>
</g>
<defs>
<filter id="filter0_d_1129_18111" x="0" y="0" width="104" height="104" filterUnits="userSpaceOnUse" color-interpolation-filters="sRGB">
<feFlood flood-opacity="0" result="BackgroundImageFix"/>
<feColorMatrix in="SourceAlpha" type="matrix" values="0 0 0 0 0 0 0 0 0 0 0 0 0 0 0 0 0 0 127 0" result="hardAlpha"/>
<feOffset dy="8"/>
<feGaussianBlur stdDeviation="6"/>
<feComposite in2="hardAlpha" operator="out"/>
<feColorMatrix type="matrix" values="0 0 0 0 0.586538 0 0 0 0 0.586538 0 0 0 0 0.586538 0 0 0 0.25 0"/>
<feBlend mode="normal" in2="BackgroundImageFix" result="effect1_dropShadow_1129_18111"/>
<feBlend mode="normal" in="SourceGraphic" in2="effect1_dropShadow_1129_18111" result="shape"/>
</filter>
</defs>
</svg>

<svg xmlns="http://www.w3.org/2000/svg" width="104" height="104" fill="none" viewBox="0 0 104 104"><g filter="url(#a)"><rect width="80" height="80" x="12" y="4" fill="#fff" rx="20"/><rect width="40" height="30.667" x="27.465" y="29.116" fill="#7cd0e8" rx="8" transform="rotate(-9 27.465 29.116)"/><path fill="#7a49e9" d="M72 35.092v-3.406c0-1.67-1.357-3.02-3.035-3.02h-33.93A3.025 3.025 0 0 0 32 31.687v3.406c0 .293.241.533.536.533h38.928c.295 0 .536-.24.536-.533m-.536 3.357H32.536a.536.536 0 0 0-.536.533v17.332c0 1.67 1.357 3.02 3.035 3.02h33.93A3.025 3.025 0 0 0 72 56.313V38.982a.536.536 0 0 0-.536-.533M51.991 49.582l-.817 4.61a.535.535 0 0 1-.526.439H48.88a.532.532 0 0 1-.527-.626l.817-4.61a.535.535 0 0 1 .527-.44h1.767a.536.536 0 0 1 .527.627m5.718 0-.817 4.61a.535.535 0 0 1-.527.439h-1.767a.532.532 0 0 1-.527-.626l.817-4.61a.535.535 0 0 1 .526-.44h1.768a.535.535 0 0 1 .526.627m8.57 0-.818 4.61a.535.535 0 0 1-.526.439h-4.62a.532.532 0 0 1-.527-.626l.817-4.61a.535.535 0 0 1 .527-.44h4.62c.33.005.584.303.526.627"/></g><defs><filter id="a" width="104" height="104" x="0" y="0" color-interpolation-filters="sRGB" filterUnits="userSpaceOnUse"><feFlood flood-opacity="0" result="BackgroundImageFix"/><feColorMatrix in="SourceAlpha" result="hardAlpha" values="0 0 0 0 0 0 0 0 0 0 0 0 0 0 0 0 0 0 127 0"/><feOffset dy="8"/><feGaussianBlur stdDeviation="6"/><feComposite in2="hardAlpha" operator="out"/><feColorMatrix values="0 0 0 0 0.586538 0 0 0 0 0.586538 0 0 0 0 0.586538 0 0 0 0.25 0"/><feBlend in2="BackgroundImageFix" result="effect1_dropShadow_1129_18111"/><feBlend in="SourceGraphic" in2="effect1_dropShadow_1129_18111" result="shape"/></filter></defs></svg>
